assets/img/braze_icons/credit-card-edit.svg

<svg fill="none" height="24" viewBox="0 0 24 24" width="24" xmlns="http://www.w3.org/2000/svg"><g fill="#801ed7"><path clip-rule="evenodd" d="m19.2929 13.2929c.9428-.9428 2.4714-.9428 3.4142 0s.9428 2.4714 0 3.4142l-4.1574 4.1575c-.0086.0085-.0174.0174-.0265.0264-.099.0995-.2239.2248-.3721.3282-.1288.0898-.2677.1642-.4138.2215-.1683.066-.3418.1003-.4795.1276-.0126.0025-.0248.0049-.0367.0073l-2.025.405c-.3278.0656-.6668-.0371-.9032-.2735s-.3391-.5754-.2735-.9032l.405-2.025c.0024-.0119.0048-.0241.0073-.0367.0273-.1377.0616-.3112.1276-.4795.0573-.1461.1317-.285.2215-.4138.1034-.1482.2287-.273.3282-.3721.009-.0091.0179-.0179.0264-.0265z" fill-rule="evenodd"/><path d="m18.8385 4h-13.67704c-.52711-.00002-.98193-.00003-1.35648.03057-.39535.0323-.78857.10362-1.16695.29641-.56448.28762-1.02343.74657-1.31105 1.31105-.19279.37838-.26411.7716-.29641 1.16695-.030598.37454-.030585.8293-.03057 1.3564 0 .46314.37545.83862.83859.83862h20.32281c.4632 0 .8386-.37544.8386-.83856 0-.52714 0-.9819-.0306-1.35646-.0323-.39535-.1036-.78857-.2964-1.16695-.2876-.56448-.7465-1.02342-1.311-1.31104-.3784-.1928-.7716-.26411-1.167-.29642-.3745-.0306-.8293-.03058-1.3565-.03057z"/><path d="m1.54601 11.109c.21391-.109.49394-.109 1.05399-.109h14.9932c.3653 0 .5437.6206.2855.8788l-4.1575 4.1575-.019.0188c-.0847.0832-.3451.339-.5619.6499-.1796.2575-.3283.5353-.4429.8276-.1384.3528-.2068.7113-.2291.8279l-.0051.0263-.194.9701c-.0458.2291-.0687.3436-.1285.4293-.0527.0755-.1253.1351-.2098.172-.0957.0418-.2125.0418-.4461.0418h-6.32351c-.52705 0-.9818 0-1.35631-.0306-.39535-.0323-.78857-.1036-1.16695-.2964-.56448-.2876-1.02343-.7465-1.31105-1.311-.19279-.3784-.26411-.7716-.29641-1.167-.030598-.3745-.030585-.8293-.03057-1.3564v-3.2386c0-.5601 0-.8401.10899-1.054.09588-.1882.24886-.3411.43702-.437z"/></g></svg>

<svg width="24" height="24" viewBox="0 0 24 24" fill="none" xmlns="http://www.w3.org/2000/svg">
<path fill-rule="evenodd" clip-rule="evenodd" d="M19.2929 13.2929C20.2357 12.3501 21.7643 12.3501 22.7071 13.2929C23.6499 14.2357 23.6499 15.7643 22.7071 16.7071L18.5497 20.8646C18.5411 20.8731 18.5323 20.882 18.5232 20.891C18.4242 20.9905 18.2993 21.1158 18.1511 21.2192C18.0223 21.309 17.8834 21.3834 17.7373 21.4407C17.569 21.5067 17.3955 21.541 17.2578 21.5683C17.2452 21.5708 17.233 21.5732 17.2211 21.5756L15.1961 21.9806C14.8683 22.0462 14.5293 21.9435 14.2929 21.7071C14.0565 21.4707 13.9538 21.1317 14.0194 20.8039L14.4244 18.7789C14.4268 18.767 14.4292 18.7548 14.4317 18.7422C14.459 18.6045 14.4933 18.431 14.5593 18.2627C14.6166 18.1166 14.691 17.9777 14.7808 17.8489C14.8842 17.7007 15.0095 17.5759 15.109 17.4768C15.118 17.4677 15.1269 17.4589 15.1354 17.4503L19.2929 13.2929Z" fill="#801ED7"/>
<path d="M18.8385 4L5.16146 4C4.63435 3.99998 4.17953 3.99997 3.80498 4.03057C3.40963 4.06287 3.01641 4.13419 2.63803 4.32698C2.07355 4.6146 1.6146 5.07355 1.32698 5.63803C1.13419 6.01641 1.06287 6.40963 1.03057 6.80498C0.999972 7.17952 0.999985 7.63428 1 8.16138C1 8.62452 1.37545 9 1.83859 9H22.1614C22.6246 9 23 8.62456 23 8.16144C23 7.6343 23 7.17954 22.9694 6.80498C22.9371 6.40963 22.8658 6.01641 22.673 5.63803C22.3854 5.07355 21.9265 4.61461 21.362 4.32699C20.9836 4.13419 20.5904 4.06288 20.195 4.03057C19.8205 3.99997 19.3657 3.99999 18.8385 4Z" fill="#801ED7"/>
<path d="M1.54601 11.109C1.75992 11 2.03995 11 2.6 11H17.5932C17.9585 11 18.1369 11.6206 17.8787 11.8788L13.7212 16.0363L13.7022 16.0551C13.6175 16.1383 13.3571 16.3941 13.1403 16.705C12.9607 16.9625 12.812 17.2403 12.6974 17.5326C12.559 17.8854 12.4906 18.2439 12.4683 18.3605L12.4632 18.3868L12.2692 19.3569C12.2234 19.586 12.2005 19.7005 12.1407 19.7862C12.088 19.8617 12.0154 19.9213 11.9309 19.9582C11.8352 20 11.7184 20 11.4848 20L5.16129 20C4.63424 20 4.17949 20 3.80498 19.9694C3.40963 19.9371 3.01641 19.8658 2.63803 19.673C2.07355 19.3854 1.6146 18.9265 1.32698 18.362C1.13419 17.9836 1.06287 17.5904 1.03057 17.195C0.999972 16.8205 0.999985 16.3657 1 15.8386V12.6C1 12.0399 1 11.7599 1.10899 11.546C1.20487 11.3578 1.35785 11.2049 1.54601 11.109Z" fill="#801ED7"/>
</svg>
